packages/foundations/assets/icons/functional/images/file/document_12.svg

<svg width="12" height="12" viewBox="0 0 12 12" fill="none" xmlns="http://www.w3.org/2000/svg">
<g clip-path="url(#clip0_2207_3242)">
<path fill-rule="evenodd" clip-rule="evenodd" d="M7.20002 1.2C7.35002 1.2 7.50002 1.25625 7.61252 1.36875L9.43127 3.16875C9.54377 3.28125 9.60002 3.43125 9.60002 3.6V10.2C9.60002 10.5375 9.33752 10.8 9.00002 10.8H3.00002C2.66252 10.8 2.40002 10.5375 2.40002 10.2V1.8C2.40002 1.4625 2.66252 1.2 3.00002 1.2H7.20002ZM6.58127 2.4H3.60002V9.6H8.40002V4.2H7.18127C6.84377 4.2 6.58127 3.9375 6.58127 3.6V2.4ZM4.80002 5.4H7.20002V6.58125H4.80002V5.4ZM4.80002 7.2H7.20002V8.4H4.80002V7.2Z" fill="#1A1C1F"/>
</g>
<defs>
<clipPath id="clip0_2207_3242">
<rect width="12" height="12" fill="white"/>
</clipPath>
</defs>
</svg>

<svg xmlns="http://www.w3.org/2000/svg" width="12" height="12" fill="none"><g clip-path="url(#a)"><path fill="#1A1C1F" fill-rule="evenodd" d="M7.2 1.2c.15 0 .3.056.413.169l1.818 1.8A.6.6 0 0 1 9.6 3.6v6.6c0 .338-.262.6-.6.6H3a.59.59 0 0 1-.6-.6V1.8c0-.338.263-.6.6-.6zm-.619 1.2H3.6v7.2h4.8V4.2H7.181a.59.59 0 0 1-.6-.6zM4.8 5.4h2.4v1.181H4.8zm0 1.8h2.4v1.2H4.8z" clip-rule="evenodd"/></g><defs><clipPath id="a"><path fill="#fff" d="M0 0h12v12H0z"/></clipPath></defs></svg>
